Papirus/24x24/apps/putty.svg

<svg xmlns="http://www.w3.org/2000/svg" width="24" height="24" version="1.1" viewBox="0 0 24 24">
 <rect style="opacity:0.2" width="12" height="9" x="-16.5" y="-19" rx=".75" ry=".75" transform="matrix(0,-1,-1,0,0,0)"/>
 <rect style="fill:#8e8e8e" width="12" height="9" x="-16" y="-19" rx=".75" ry=".75" transform="matrix(0,-1,-1,0,0,0)"/>
 <rect style="opacity:0.2" width="12" height="15" x="-14.5" y="-22" rx=".75" ry=".75" transform="matrix(0,-1,-1,0,0,0)"/>
 <rect style="fill:#8e8e8e" width="12" height="15" x="-14" y="-22" rx=".75" ry=".75" transform="matrix(0,-1,-1,0,0,0)"/>
 <rect style="fill:#266ad7" width="8" height="11" x="-12" y="-20" rx="0" ry="0" transform="matrix(0,-1,-1,0,0,0)"/>
 <path style="opacity:0.2;fill:#ffffff" d="M 7.75,2 C 7.3345,2 7,2.3345 7,2.75 v 0.5 C 7,2.8345 7.3345,2.5 7.75,2.5 h 13.5 C 21.6655,2.5 22,2.8345 22,3.25 V 2.75 C 22,2.3345 21.6655,2 21.25,2 Z"/>
 <rect style="opacity:0.2" width="12" height="9" x="-22.5" y="-14" rx=".75" ry=".75" transform="matrix(0,-1,-1,0,0,0)"/>
 <rect style="fill:#8e8e8e" width="12" height="9" x="-22" y="-14" rx=".75" ry=".75" transform="matrix(0,-1,-1,0,0,0)"/>
 <rect style="opacity:0.2" width="12" height="15" x="-20.5" y="-17" rx=".75" ry=".75" transform="matrix(0,-1,-1,0,0,0)"/>
 <rect style="fill:#8e8e8e" width="12" height="15" x="-20" y="-17" rx=".75" ry=".75" transform="matrix(0,-1,-1,0,0,0)"/>
 <rect style="fill:#ffbe47" width="8" height="11" x="-18" y="-15" rx="0" ry="0" transform="matrix(0,-1,-1,0,0,0)"/>
 <path style="opacity:0.2;fill:#ffffff" d="m 2.75,8.0000015 c -0.4155,0 -0.75,0.3345 -0.75,0.75 v 0.5 c 0,-0.4155 0.3345,-0.75 0.75,-0.75 h 13.5 c 0.4155,0 0.75,0.3345 0.75,0.75 v -0.5 c 0,-0.4155 -0.3345,-0.75 -0.75,-0.75 z"/>
</svg>

<svg xmlns="http://www.w3.org/2000/svg" width="24" height="24" version="1.1" viewBox="0 0 24 24">
 <rect style="opacity:0.2" width="12" height="9" x="-16.5" y="-19" rx=".75" ry=".75" transform="matrix(0,-1,-1,0,0,0)"/>
 <rect style="fill:#8e8e8e" width="12" height="9" x="-16" y="-19" rx=".75" ry=".75" transform="matrix(0,-1,-1,0,0,0)"/>
 <rect style="opacity:0.2" width="12" height="15" x="-14.5" y="-22" rx=".75" ry=".75" transform="matrix(0,-1,-1,0,0,0)"/>
 <rect style="fill:#4f4f4f" width="12" height="15" x="-14" y="-22" rx=".75" ry=".75" transform="matrix(0,-1,-1,0,0,0)"/>
 <rect style="fill:#266ad7" width="8" height="11" x="-12" y="-20" rx="0" ry="0" transform="matrix(0,-1,-1,0,0,0)"/>
 <rect style="opacity:0.2" width="12" height="9" x="-22.5" y="-14" rx=".75" ry=".75" transform="matrix(0,-1,-1,0,0,0)"/>
 <rect style="fill:#8e8e8e" width="12" height="9" x="-22" y="-14" rx=".75" ry=".75" transform="matrix(0,-1,-1,0,0,0)"/>
 <rect style="opacity:0.2" width="12" height="15" x="-20.5" y="-17" rx=".75" ry=".75" transform="matrix(0,-1,-1,0,0,0)"/>
 <rect style="fill:#4f4f4f" width="12" height="15" x="-20" y="-17" rx=".75" ry=".75" transform="matrix(0,-1,-1,0,0,0)"/>
 <rect style="fill:#ffbe47" width="8" height="11" x="-18" y="-15" rx="0" ry="0" transform="matrix(0,-1,-1,0,0,0)"/>
 <path style="fill:#ffffff;opacity:0.1" d="M 2.75 8 C 2.3345 8 2 8.3345 2 8.75 L 2 9.25 C 2 8.8345 2.3345 8.5 2.75 8.5 L 16.25 8.5 C 16.666 8.5 17 8.8345 17 9.25 L 17 8.75 C 17 8.3345 16.666 8 16.25 8 L 2.75 8 z"/>
 <path style="fill:#ffffff;opacity:0.1" d="M 7.75 2 C 7.3345 2 7 2.3345 7 2.75 L 7 3.25 C 7 2.8345 7.3345 2.5 7.75 2.5 L 21.25 2.5 C 21.666 2.5 22 2.8345 22 3.25 L 22 2.75 C 22 2.3345 21.666 2 21.25 2 L 7.75 2 z"/>
</svg>
